img/icons/shield.svg

<svg width="30" height="30" viewBox="0 0 30 30" fill="none" xmlns="http://www.w3.org/2000/svg">
<g clip-path="url(#clip0_31_75)">
<path d="M15 8.78906C11.6076 8.78906 8.84766 11.549 8.84766 14.9414C8.84766 18.3338 11.6076 21.0938 15 21.0938C18.3924 21.0938 21.1523 18.3338 21.1523 14.9414C21.1523 11.549 18.3925 8.78906 15 8.78906ZM19.1371 13.8051L14.4496 18.4926C14.278 18.6642 14.0531 18.75 13.8281 18.75C13.6032 18.75 13.3782 18.6642 13.2067 18.4925L10.8629 16.1488C10.5197 15.8056 10.5197 15.2491 10.8629 14.9058C11.2061 14.5627 11.7626 14.5627 12.1059 14.9058L13.8281 16.6281L17.8942 12.5621C18.2374 12.2189 18.7939 12.2189 19.1371 12.5621C19.4804 12.9053 19.4804 13.4619 19.1371 13.8051Z" fill="white"/>
<path d="M25.5469 4.68747C22.0032 4.68747 18.6715 3.30747 16.1658 0.801709L15.6215 0.257432C15.2784 -0.0858692 14.7218 -0.085752 14.3786 0.257432L13.8342 0.801709C11.3285 3.30747 7.99687 4.68747 4.45312 4.68747C3.96773 4.68747 3.57422 5.08099 3.57422 5.56638V14.3333C3.57422 21.3804 8.05084 27.6571 14.7138 29.9521C14.8065 29.984 14.9032 30 15 30C15.0968 30 15.1935 29.984 15.2862 29.9521C21.9492 27.6571 26.4258 21.3804 26.4258 14.3333V5.56638C26.4258 5.08099 26.0323 4.68747 25.5469 4.68747ZM15 22.8515C10.6383 22.8515 7.08984 19.303 7.08984 14.9414C7.08984 10.5797 10.6383 7.03122 15 7.03122C19.3617 7.03122 22.9102 10.5797 22.9102 14.9414C22.9102 19.303 19.3617 22.8515 15 22.8515Z" fill="white"/>
</g>
<defs>
<clipPath id="clip0_31_75">
<rect width="30" height="30" fill="white"/>
</clipPath>
</defs>
</svg>

<svg width="30" height="30" viewBox="0 0 30 30" fill="none" xmlns="http://www.w3.org/2000/svg"><g clip-path="url(#a)" fill="#fff"><path d="M15 8.79a6.16 6.16 0 0 0-6.152 6.151A6.16 6.16 0 0 0 15 21.094a6.16 6.16 0 0 0 6.152-6.153A6.16 6.16 0 0 0 15 8.79Zm4.137 5.015-4.687 4.688a.876.876 0 0 1-1.243 0l-2.344-2.344a.879.879 0 0 1 1.243-1.243l1.722 1.722 4.066-4.066a.879.879 0 1 1 1.243 1.243Z"/><path d="M25.547 4.687A13.18 13.18 0 0 1 16.166.802L15.62.257a.879.879 0 0 0-1.242 0l-.545.545a13.18 13.18 0 0 1-9.38 3.885.879.879 0 0 0-.88.88v8.766a16.525 16.525 0 0 0 11.14 15.62.88.88 0 0 0 .572 0 16.525 16.525 0 0 0 11.14-15.62V5.566a.879.879 0 0 0-.88-.879ZM15 22.852c-4.362 0-7.91-3.549-7.91-7.91 0-4.362 3.548-7.91 7.91-7.91s7.91 3.548 7.91 7.91c0 4.361-3.548 7.91-7.91 7.91Z"/></g><defs><clipPath id="a"><path fill="#fff" d="M0 0h30v30H0z"/></clipPath></defs></svg>
